img/cartreader/line.svg

<svg width="173" height="129" viewBox="0 0 173 129" fill="none" xmlns="http://www.w3.org/2000/svg">
<path opacity="0.87" d="M17.0745 128.109C17.0745 128.109 12.2038 127.492 8.4439 116.845C5.22529 107.732 2.4873 98.881 1.68686 89.2142C0.910477 79.8379 0.295171 69.7178 2.74222 60.5414C5.15541 51.4919 9.13079 42.316 14.5156 34.6234C23.8486 21.2905 40.2361 16.5395 55.702 14.6812C62.4 13.8765 68.3101 14.2911 74.4929 16.9016C78.4285 18.5633 82.6535 20.7252 85.4851 24.0287C89.6349 28.8701 92.6958 36.0981 93.0645 42.5043C93.3018 46.6282 91.7886 51.083 87.6917 52.6193C82.8157 54.4478 78.1409 52.4732 73.8487 50.0426C67.2055 46.2806 61.3212 41.9234 57.7305 35.0209C54.7724 29.3345 54.6558 21.4171 57.9772 15.8051C63.6998 6.13589 75.3076 3.22517 85.6495 1.92099C91.1912 1.22216 96.9324 0.751517 102.522 1.13975C114.339 1.96061 160.574 14.0112 172 16.9016M172 16.9016L169 8.99976M172 16.9016L165.5 21.4998" stroke="white" stroke-linecap="round" stroke-dasharray="6 6"/>
</svg>

<svg width="173" height="129" fill="none" xmlns="http://www.w3.org/2000/svg"><path opacity=".87" d="M17.075 128.109s-4.871-.617-8.631-11.264c-3.219-9.113-5.957-17.964-6.757-27.63C.91 79.837.295 69.717 2.742 60.54c2.413-9.05 6.389-18.225 11.774-25.918 9.333-13.332 25.72-18.083 41.186-19.942 6.698-.804 12.608-.39 18.79 2.22 3.936 1.662 8.161 3.824 10.993 7.128 4.15 4.841 7.21 12.07 7.58 18.475.237 4.124-1.276 8.579-5.373 10.115-4.876 1.829-9.551-.146-13.843-2.576-6.644-3.762-12.528-8.12-16.119-15.022-2.958-5.687-3.074-13.604.247-19.216C63.7 6.135 75.307 3.225 85.65 1.921c5.541-.699 11.282-1.17 16.872-.781 11.817.82 58.052 12.871 69.478 15.762m0 0L169 9m3 7.902l-6.5 4.598" stroke="#fff" stroke-linecap="round" stroke-dasharray="6 6"/></svg>
